X: 6540
T: Cathal's Sequins
R: jig
M: 6/8
K: Dmajor
F2D DFA|G2D z2B|Ace gfe|fdB ABG|
F2D DFA|G2D z2B|Ace gfe|fdc dcB|
A3 DFA|G2D z2B|Ace gfe|fdB ABG|
F2D DFA|G2D z2B|Ace gfe|fdc d2e||
|:f3 efd|ecd BcA|G3 FAd|cde g3|
efd ded|BcA AGF|GBd fed|1 cAA A2e:|2 cAA AGE||

